X: 35
T: No_12_White_Feathers_Along_the_Edge_of_the_World.krn
N: Derived from No_12_White_Feathers_Along_the_Edge_of_the_World.krn
%%abc-version 2.0
%%abcx-abcm2ps-target-version 5.9.1 (29 Sep 2008)
%%abc-creator hum2abc beta
%%abcx-conversion-date 2019/03/15 08:37:56
%%humdrum-veritas 2088930580
%%humdrum-veritas-data 3711372963
%%linebreak <none>
%%barnumbers 0
L: 1/8
M: 5/8
K: C clef=bass
[K:clef=bass][M:5/8]F,2_A,/G,/A,G, ||  
[M:2/4]F,/F,3/ F,D, ||  
[M:5/8]F,2G,/F,/G,F, ||  
[M:2/4]C,/C,3/ C, z | 
C,2F,F,/C,/ | 
C,2_D,C, ||  
[M:3/4]F,/F,3/F,2z2 ||  
[M:5/8]F,2_A,/G,/A,G, ||  
[M:2/4]F,/F,3/ F,D, ||  
[M:5/8]F,2G,/F,/G,F, ||  
[M:2/4]C,/C,3/ C, z | 
C,2F,F,/C,/ | 
C,2_D,C, ||  
[M:3/4]F,3/F,/F,2z2 ||  
[M:5/8]G,3/F,/G,G,/F,/G, ||  
[M:2/4]G,3/G,/ G,3/G,/ | 
_D,/D,3/ D, z ||  
[M:5/8]G,3/G,/_D,3 ||  
[M:2/4]_D,3/F,/ F,3/D,/ ||  
[M:3/8]F,2z ||  
[M:5/8]G,3/F,/G,G,/F,/G, ||  
[M:2/4]G,3/G,/ G,3/G,/ | 
(3F,_D,D,D,2 ||  
[M:5/8]G,3/G,/_D,3 ||  
[M:2/4]_D,3/F,/ F,3/D,/ | 
F,2z2 |]  



